archdroid-icon-theme/Archdroid-LightGreen/categories/scalable/applications-development.svg

<svg fill="#8BC34A" height="48" viewBox="0 0 48 48" width="48" xmlns="http://www.w3.org/2000/svg"><path d="m21.382765 27.539804-5.531079-5.53108 5.531079-5.539804-2.46892-2.46892-8 8 8 8zm7.703385 2.460196 8-8-8-8-2.46892 2.46892 5.531079 5.53108-5.531079 5.539804zm-21.08615-22c-2.21 0-4 1.79-4 4v20c0 2.21 1.79 4 4 4h-8v4h48v-4h-8c2.21 0 3.980469-1.79 3.980469-4l.019531-20c0-2.21-1.79-4-4-4zm0 4h32v20h-32z" fill="#8BC34A"/></svg>

<svg fill="#8BC34A" height="48" version="1.1" viewBox="0 0 48 48" width="48" xmlns="http://www.w3.org/2000/svg"><path d="M21.382765 27.539804L15.851686 22.008724 21.382765 16.46892 18.913845 14 10.913845 22l8 8 2.46892-2.460196zM29.08615 30l8-8-8-8-2.46892 2.46892L32.148309 22 26.61723 27.539804 29.08615 30ZM8 8C5.79 8 4 9.79 4 12l0 20c0 2.21 1.79 4 4 4l-8 0 0 4 48 0 0-4-8 0c2.21 0 3.980469-1.79 3.980469-4L44 12C44 9.79 42.21 8 40 8L8 8Zm0 4l32 0 0 20-32 0 0-20z" fill="#8BC34A"/></svg>
